X:42
T:Hornpipes 2 - The Sunny Banks
T:Mad Moll of the Cheshire Hunt
O:england
M:4/4
L:1/8
Q:1/4=113
C:Trad
R:hornpipe
K:G
(3DEF|: "G"G2 gf "C"edcB | "D"ABcA "G"B2"D"A2 | "G"G2 gf "C"edc>B | "D"dcAF "C"G2 (3DEF|
"G"G2 gf "C"edcB | "D"ABcA "Em"B2A2 | "C"e2d2 "Am"c2B2 | 1 "C"cA"D"FA "G"G2 (3DEF:|2 c"D"AFA "G"G4||
"G"DGBG DGBG | DGBd c2A2 | "D"DFAF DFAF | DFAc B2G2|
"G"DGBG DGBG | DGBd "Am"c2"G"A2 | "C"e2"G/B"d2 "AM"c2B2 | "C"cA"D"FA "G"G4 :|
T:The Sunny Banks
K:D
AG| "D"F3A GFD2|"D"defe d=c"Am"AF|"G"G3F GFDE|"D"FGAF "Em"GB"A"AG|
"D"F3A GFD2| "D"defe d=c"Am"AG| "D"Ad=cA "C"GBAG| "D"F2D2D2:||
fg| "D"agfd "A7"gfec|"D"dcde fdA2|"D"agfd "Em"gf"A"de|"D"fd"Em"gf "A"e2fg|
"D"af"A"ge"D"~f3e| "D"dcde "G"fdAG|"Dm/F"Ad=cA "C"GBAG| "D"F2D2D2:||
%%newpage

